build/finance/DigitalMoneyOutline.svg

<svg xmlns="http://www.w3.org/2000/svg" fill="none" viewBox="0 0 24 24" focusable="false"><path d="M0 0H24V24H0z"/><path fill="#74767B" fill-rule="evenodd" d="M12.6501 3.6406L12.6501 6.32728C13.2485 6.39512 13.8188 6.55547 14.3464 6.79366L14.3464 4.64564C14.3464 4.28665 14.6374 3.99564 14.9964 3.99564C15.3554 3.99564 15.6464 4.28665 15.6464 4.64564L15.6464 7.59461L15.6463 7.6067C15.9145 7.82952 16.1619 8.07641 16.3852 8.34406L19.3667 8.34406C19.7256 8.34406 20.0167 8.63508 20.0167 8.99406C20.0167 9.35305 19.7256 9.64406 19.3667 9.64406L17.2019 9.64406C17.4424 10.1744 17.6043 10.748 17.6725 11.35L20.3797 11.35C20.7387 11.35 21.0297 11.6411 21.0297 12C21.0297 12.359 20.7387 12.65 20.3797 12.65L17.6725 12.65C17.6045 13.2498 17.4436 13.8214 17.2045 14.35L19.3566 14.35C19.7156 14.35 20.0066 14.6411 20.0066 15C20.0066 15.359 19.7156 15.65 19.3566 15.65L16.3901 15.65C16.1655 15.9199 15.9165 16.1687 15.6465 16.3931L15.6465 19.3515C15.6465 19.7105 15.3555 20.0015 14.9965 20.0015C14.6375 20.0015 14.3465 19.7105 14.3465 19.3515L14.3465 17.2062C13.8188 17.4445 13.2485 17.6048 12.6501 17.6727L12.6501 20.3477C12.6501 20.7066 12.3591 20.9977 12.0001 20.9977C11.6411 20.9977 11.3501 20.7066 11.3501 20.3477L11.3501 17.6727C10.7518 17.605 10.1816 17.4447 9.65401 17.2067L9.65401 19.3653C9.65401 19.7243 9.363 20.0153 9.00401 20.0153C8.64503 20.0153 8.35402 19.7243 8.35402 19.3653L8.35402 16.3939C8.08364 16.1693 7.83433 15.9202 7.60948 15.6501L4.64456 15.6501C4.28557 15.6501 3.99456 15.3591 3.99456 15.0001C3.99456 14.6411 4.28557 14.3501 4.64456 14.3501L6.79503 14.3501C6.55593 13.8214 6.39502 13.2498 6.32705 12.65L3.65261 12.65C3.29362 12.65 3.00261 12.359 3.00261 12C3.00261 11.641 3.29362 11.35 3.65261 11.35L6.32704 11.35C6.39526 10.748 6.55708 10.1745 6.7976 9.64419L4.65199 9.64419C4.29301 9.64419 4.00199 9.35317 4.00199 8.99419C4.00199 8.6352 4.29301 8.34419 4.65199 8.34419L7.6142 8.34419C7.83659 8.07769 8.08281 7.83178 8.34959 7.60973L8.34959 4.64568C8.34959 4.2867 8.64061 3.99568 8.99959 3.99568C9.35858 3.99568 9.64959 4.2867 9.64959 4.64568L9.64959 6.79526C10.1784 6.5561 10.7501 6.39516 11.3501 6.32721L11.3501 3.6406C11.3501 3.28162 11.6411 2.9906 12.0001 2.9906C12.3591 2.9906 12.6501 3.28162 12.6501 3.6406ZM16.4091 12C16.4091 14.4352 14.435 16.4093 11.9998 16.4093C9.56457 16.4093 7.59045 14.4352 7.59045 12C7.59045 9.56477 9.56457 7.59065 11.9998 7.59065C14.435 7.59065 16.4091 9.56477 16.4091 12ZM11.584 12.5365L12.8643 12.5365C13.8504 12.5365 14.6498 11.7371 14.6498 10.751C14.6498 9.76485 13.8504 8.96545 12.8643 8.96545L11.234 8.96545C10.7097 8.96545 10.284 9.39018 10.284 9.9153L10.284 11.2365L9.8643 11.2365C9.50532 11.2365 9.2143 11.5275 9.2143 11.8865C9.2143 12.2455 9.50532 12.5365 9.8643 12.5365L10.284 12.5365L10.284 13.1401L9.85067 13.1401C9.49168 13.1401 9.20067 13.4312 9.20067 13.7901C9.20067 14.1491 9.49168 14.4401 9.85067 14.4401L10.284 14.4401L10.284 14.7567C10.284 15.1156 10.575 15.4067 10.934 15.4067C11.293 15.4067 11.584 15.1156 11.584 14.7567L11.584 14.4401L12.8364 14.4401C13.1954 14.4401 13.4864 14.1491 13.4864 13.7901C13.4864 13.4312 13.1954 13.1401 12.8364 13.1401L11.584 13.1401L11.584 12.5365ZM11.584 10.2655L11.584 11.2365L12.8643 11.2365C13.1325 11.2365 13.3498 11.0191 13.3498 10.751C13.3498 10.4828 13.1325 10.2655 12.8643 10.2655L11.584 10.2655Z"/></svg>

<svg xmlns="http://www.w3.org/2000/svg" fill="none" viewBox="0 0 24 24" focusable="false"><path fill="#74767B" fill-rule="evenodd" d="M12.65 3.64v2.68c.59.07 1.16.23 1.69.47V4.64c0-.36.29-.65.65-.65s.65.29.65.65V7.6c.27.22.52.47.74.74h2.98c.36 0 .65.29.65.65s-.29.65-.65.65H17.2c.24.53.4 1.1.47 1.71h2.7c.36 0 .65.29.65.65 0 .35-.29.65-.65.65h-2.7a5.8 5.8 0 0 1-.47 1.7h2.15c.36 0 .65.29.65.65 0 .35-.29.65-.65.65h-2.96c-.23.26-.48.51-.75.74v2.96c0 .36-.29.65-.65.65s-.65-.29-.65-.65V17.2c-.53.24-1.1.4-1.69.47v2.67c0 .36-.3.65-.65.65-.36 0-.65-.29-.65-.65v-2.67c-.6-.07-1.17-.23-1.7-.47v2.16c0 .36-.29.65-.65.65s-.65-.29-.65-.65v-2.97c-.27-.23-.52-.47-.75-.74H4.64c-.36 0-.65-.3-.65-.65 0-.36.29-.65.65-.65h2.15a5.8 5.8 0 0 1-.47-1.7H3.65c-.36 0-.65-.3-.65-.65 0-.36.29-.65.65-.65h2.67c.07-.61.23-1.18.47-1.71H4.65c-.36 0-.65-.29-.65-.65s.29-.65.65-.65h2.96c.22-.27.47-.51.73-.74V4.64c0-.36.3-.65.65-.65.36 0 .65.29.65.65v2.15c.53-.24 1.11-.4 1.71-.47V3.64c0-.36.29-.65.65-.65.35 0 .65.29.65.65M16.4 12c0 2.43-1.97 4.4-4.41 4.4a4.4 4.4 0 0 1-4.4-4.4c0-2.44 1.97-4.41 4.4-4.41 2.44 0 4.41 1.97 4.41 4.41m-3.54.53h-1.28v.61h1.25c.36 0 .65.29.65.65 0 .35-.29.65-.65.65h-1.25v.31c0 .36-.29.65-.65.65s-.65-.29-.65-.65v-.31h-.43c-.36 0-.65-.3-.65-.65 0-.36.29-.65.65-.65h.43v-.61h-.42c-.36 0-.65-.29-.65-.65s.29-.65.65-.65h.42V9.91c0-.52.42-.95.95-.95h1.63c.99 0 1.78.8 1.78 1.79 0 .98-.79 1.78-1.78 1.78m-1.28-1.3v-.97h1.28c.27 0 .48.22.48.49 0 .26-.21.48-.48.48z"/></svg>
